icons/receipt.svg

<svg xmlns="http://www.w3.org/2000/svg" width="24" height="24" viewBox="0 0 24 24">
  <path d="M19,1 C20.1045695,1 21,1.8954305 21,3 L21,21.5992961 C21,21.8754385 20.7761424,22.0992961 20.5,22.0992961 C20.3500334,22.0992961 20.2079858,22.0319827 20.1130214,21.915915 L18.3869786,19.8063072 C18.2121149,19.5925848 17.8971035,19.5610837 17.6833811,19.7359475 C17.6576467,19.7570029 17.6340768,19.7805728 17.6130214,19.8063072 L15.3869786,22.5270261 C15.2121149,22.7407485 14.8971035,22.7722496 14.6833811,22.5973858 C14.6576467,22.5763304 14.6340768,22.5527605 14.6130214,22.5270261 L12.3869786,19.8063072 C12.2121149,19.5925848 11.8971035,19.5610837 11.6833811,19.7359475 C11.6576467,19.7570029 11.6340768,19.7805728 11.6130214,19.8063072 L9.38697865,22.5270261 C9.21211486,22.7407485 8.89710351,22.7722496 8.6833811,22.5973858 C8.6576467,22.5763304 8.63407677,22.5527605 8.61302135,22.5270261 L6.38697865,19.8063072 C6.21211486,19.5925848 5.89710351,19.5610837 5.6833811,19.7359475 C5.6576467,19.7570029 5.63407677,19.7805728 5.61302135,19.8063072 L3.88697865,21.915915 C3.71211486,22.1296374 3.39710351,22.1611385 3.1833811,21.9862747 C3.06731339,21.8913102 3,21.7492627 3,21.5992961 L3,3 C3,1.8954305 3.8954305,1 5,1 L19,1 Z M17,13 L7,13 L6.88337887,13.0067277 C6.38604019,13.0644928 6,13.4871642 6,14 C6,14.5522847 6.44771525,15 7,15 L7,15 L17,15 L17.1166211,14.9932723 C17.6139598,14.9355072 18,14.5128358 18,14 C18,13.4477153 17.5522847,13 17,13 L17,13 Z M17,9 L7,9 L6.88337887,9.00672773 C6.38604019,9.06449284 6,9.48716416 6,10 C6,10.5522847 6.44771525,11 7,11 L7,11 L17,11 L17.1166211,10.9932723 C17.6139598,10.9355072 18,10.5128358 18,10 C18,9.44771525 17.5522847,9 17,9 L17,9 Z M17,5 L7,5 L6.88337887,5.00672773 C6.38604019,5.06449284 6,5.48716416 6,6 C6,6.55228475 6.44771525,7 7,7 L7,7 L17,7 L17.1166211,6.99327227 C17.6139598,6.93550716 18,6.51283584 18,6 C18,5.44771525 17.5522847,5 17,5 L17,5 Z"/>
</svg>

<svg xmlns="http://www.w3.org/2000/svg" viewBox="0 0 24 24">
  <path d="M19 1a2 2 0 0 1 2 2v18.6a.5.5 0 0 1-.89.32L18.4 19.8a.5.5 0 0 0-.78 0l-2.22 2.72a.5.5 0 0 1-.78 0L12.4 19.8a.5.5 0 0 0-.78 0L9.4 22.53a.5.5 0 0 1-.78 0L6.4 19.8a.5.5 0 0 0-.78 0L3.9 21.9a.5.5 0 0 1-.9-.3V3c0-1.1.9-2 2-2h14zm-2 12H6.88A1 1 0 0 0 7 15h10.12a1 1 0 0 0-.12-2zm0-4H6.88A1 1 0 0 0 7 11h10.12A1 1 0 0 0 17 9zm0-4H6.88A1 1 0 0 0 7 7h10.12A1 1 0 0 0 17 5z"/>
</svg>
